!!!COM:	Compere, Loyset
!!!CDT:	~1445///-1518/08/16
!!!OTL:	Si j'ay parl&eacute; aucunement
!!!AGN:	Song; Chanson
!!!SCT:	Com3038
!!!SCA:	Com3038
!!!voices:	3
**kern	**kern	**kern
*staff3	*staff2	*staff1
*Ivox	*Ivox	*Ivox
*I"Bassus	*I"Tenor	*I"Superius
*I'B	*I'T	*I'S
*clefF4	*clefGv2	*clefG2
*k[b-]	*k[b-]	*k[b-]
*M2/1	*M2/1	*M2/1
*met(C|)	*met(C|)	*met(C|)
=1-	=1-	=1-
1G	0r	0r
2G	.	.
2G	.	.
=2	=2	=2
1B-	1G	0r
4B-	2G	.
4A	.	.
4G	2G	.
4F	.	.
=3	=3	=3
0E-	1.B-	1g
.	.	2g
.	2A	2g
=4	=4	=4
1E-	1G	1.b-
2r	1F	.
2D	.	2a
=5	=5	=5
1E-	4G	1g
.	4A	.
.	4B-	.
.	4c	.
2D	1d	1f
[2BB-	.	.
=6	=6	=6
4BB-]	2r	4d
4C	.	4e
4D	2d	4f
4E	.	4g
2F	2c	2a
2G	2B-	2b-
=7	=7	=7
2F	2A	2cc
2G	2B-	1b-
1F	1c	.
.	.	2a
=8	=8	=8
2BB-	1B-	1b-
2GG	.	.
2r	2r	2r
2G	2d	2b-
=9	=9	=9
2G	2d	2b-
2G	2d	2b-
4A	2c	2a
4F	.	.
2G	2B-	2g
=10	=10	=10
2D	2A	2f
2E	2G	1g
1D	1A	.
.	.	2f#i
=11	=11	=11
1GG	1G	1g
1G	1r	2r
.	.	2d
=12	=12	=12
1C	2r	1e
.	2G	.
2r	1A	1f
2D	.	.
=13	=13	=13
1G	1B-	1g
2F	1c	1a
2A	.	.
=14	=14	=14
2G	2d	2b-
2F	2A	1a
2G	1B-	.
2E	.	2g
=15	=15	=15
1F	1A	1a
1D	1d	2r
.	.	2a
=16	=16	=16
1G	2r	1b-
.	2G	.
2r	1d	1a
2D	.	.
=17	=17	=17
1F	1c	2r
.	.	2a
1G	2r	1b-
.	2G	.
=18	=18	=18
2r	1d	1a
2D	.	.
1F	1c	2r
.	.	2a
=19	=19	=19
1BB-	1d	1b-
1F	2r	1cc
.	2A	.
=20	=20	=20
1G	1B-	1b-
2F	2c	2a
[2BB-	[2d	[2b-
=21	=21	=21
2BB-]	2d]	2b-]
2F	2c	2a
2G	2B-	2g
[2F	[2c	[2a
=22	=22	=22
2F]	2c]	2a]
2G	2B-	1g
1D	1A	.
.	.	2f#i
=23	=23	=23
0GGl	0Gl	0gl
==	==	==
*-	*-	*-
!!!RDF**kern: l=long note in original notation
!!!RDF**kern: i=editorial accidental
!!!ENC:	Megan K. Eagen 2013/11/30
!!!END:	2013/11/30/
!!!EED:	Jesse Rodin
!!!EEV:	2014/02/23/
!!!ONB:	Translated from MusicXML and edited on 2014/02/23/ by Craig Sapp
!!muse2ps: C^@{COM}^i2I150v95,95,150Q16
